!!!COM: Robert Schumann
!!!CNT: Deutsch
!!!TXO: Deutsch
!!!OTL: Sta2ndchen
!!!LYR: Reinick
!!!OPR: Sechs Gedichte
!!!OPS: Op.36
!!!ONM: No. 2
!!!ENC: Ben Fuhrman
!!!YOR: Schumann Lieder - Max Friedlaender, ed.,
!!!YOR: New York: C. F. Peters, Vol. 2
!!!ODT: 1840/
!!NB: Vocal melody and text only encoded.
!!NB: First instance of melodic material only encoded.
**kern	**silbe
*clefG2	*
*k[b-]	*
*M2/4	*
!!created: 07/06/06 10:35
!!proofed and posted: 07/06/06 10:35
!!edit time: 15 minutes
=3	=3
{4c	{Komm
8d	in
8e	die
=4	=4
8.f	stil-
16g	-le
4a	Nacht,
=5	=5
4a	Lieb-
8g	-chen,
8f	was
=6	=6
8.g	zo2-
16c	-gerst
4c	du
=7	=7
4a	Son-
8a	-ne
8a	ging
=8	=8
8.dd	la2ngst
16b-	zur
4a	Ruh',
=9	=9
4f	Welt
8f	schloss
8f	die
=10	=10
8.b-	Au-
16g	-gen
4f}	zu.}
!! rest to measure 13
=13	=13
{8.f	{Rings
16f	nur
8f	ein-
16g	-zig
16a	die
=14	=14
8b-	Lie-
8f	-be
4dd}	wacht.}
!! rest to measure 17
=17	=17
{4a	{Ein-
8.g	-zig
16d	die
=18	=18
8e	Lie-
8c	-be
4f	wacht,
=19	=19
4a	ruft
8g	dich
8d	all-
=20	=20
(16f	-u2-
16e	|
16d)	|
16c	-ber-
4f	-all.
=21	=21
4f	Ho2-
8f	-re
8f	die
=22	=22
8.ff	Nach-
16a	-ti-
4a	-gall,
=23	=23
4f	ho2r'
8f	mei-
8f	-ner
=24	=24
8.ff	Stim-
16b-	-me
4b-	Schall,
=25	=25
4bn	Lieb-
8bn	-chen,
8bn	o
=26	=26
4cc	komm
8a	in
8f	die
=27	=27
4.c	stil-
8e	-le
=28	=28
2f}	Nacht.}
==	==
*-	*-
